X:1
T:Title
%%score [ ( 1 2 ) ( 3 4 ) ]
L:1/8
Q:1/4=120
M:4/4
K:G
V:1 treble nm="MusicXML Part"
V:2 treble 
V:3 bass nm="MusicXML Part"
V:4 bass 
V:1
"^Sanctus" G4 G4 | B4 B4 | d4 d4 | A4 A2 A2 |"^Thomas Attwood\n(1765-1838)" B8 ||[M:3/4] G4 G2 | %6
 F4 F2 | E2 E2 E2 | D2 D4 | c>c c2 c2 | B2 B2 c2 | A6 | G4 z2 || d>d d2 d2 | e6 | B>B B2 ^c2 | d6 | %17
 A>A A2 B2 |"^rall." c4 B2 | A4 A2 | G6 |] %21
V:2
 D4 D4 | G4 G4 | G4 G4 | G4 F2 F2 | G8 ||[M:3/4] D4 D2 | D4 D2 | ^C2 C2 C2 | D2 D4 | C>C C2 C2 | %10
w: Ho- ly,|ho- ly,|ho- ly,|Lord God of|hosts:|Heaven and|earth are|full of thy|glo- ry,|Heaven and earth are|
 D2 G2 G2 | (G4 F2) | G4 z2 || G>G G2 G2 | G6 | G>G G2 G2 | F6 | F>F F2 G2 | A4 G2 | G4 F2 | G6 |] %21
w: full of thy|glo­ *|ry.|Glo- ry be to|thee,|glo- ry be to|thee,|glo- ry be to|thee, O|Lord most|high!|
V:3
 B,4 B,4 | E4 E4 | D4 D4 | E4 D2 D2 | D8 ||[M:3/4] B,4 D2 | D4 A,2 | A,3 A, A,2 | A,2 A,4 | %9
 G,>G, G,2 G,2 | G,2 G,2 G,2 | (E4 D2) | B,4 z2 || B,>B, B,2 B,2 | B,6 | G,>G, G,2 G,2 | A,6 | %17
 D>D D2 D2 | D4 D2 | E4 D2 | B,6 |] %21
V:4
 G,4 G,4 | E,4 E,4 | B,,4 B,,4 | C,4 D,2 D,2 | G,8 ||[M:3/4] G,4 B,2 | A,4 A,2 | G,2 G,2 G,2 | %8
 F,2 F,4 | E,>E, E,2 E,2 | D,2 D,2 E,2 | C,4 D,2 | G,,4 z2 || G,>G, G,2 G,2 | E,6 | E,>E, E,2 E,2 | %16
 D,6 | D,>D, D,2 G,2 | F,4 G,2 | C,4 D,2 | G,,6 |] %21

